; OmniPlot generated G-code
; Profile: Golden GRBL A4 (grbl)
G21
G90
M204 S500.0
M280 P0 S40
; Change to pen slot 1 (Red 0.5)
M0
; LAYER label="red" color=#ff0000 slot=1
M280 P0 S40
G0 X53.500 Y10.000 F7200.0
M280 P0 S90
G1 X124.750 Y10.000 F1800.0
G1 X124.750 Y81.250 F1800.0
G1 X53.500 Y81.250 F1800.0
G1 X53.500 Y10.000 F1800.0
; Change to pen slot 2 (Blue 0.5)
M0
; LAYER label="blue" color=#0000ff slot=2
M280 P0 S40
G0 X172.250 Y128.750 F7200.0
M280 P0 S90
G1 X243.500 Y128.750 F1800.0
G1 X243.500 Y200.000 F1800.0
G1 X172.250 Y200.000 F1800.0
G1 X172.250 Y128.750 F1800.0
M280 P0 S40
G0 X0.000 Y0.000 F7200.0
M2
